icons/dark/csv.svg

<svg width="16" height="16" viewBox="0 0 16 16" fill="none" xmlns="http://www.w3.org/2000/svg">
<path d="M3.83333 9.99999H5.83333V8.99999H4.16667V6.99999H5.83333V5.99999H3.83333C3.64444 5.99999 3.48622 6.06399 3.35867 6.19199C3.23111 6.31999 3.16711 6.47821 3.16667 6.66666V9.33332C3.16667 9.52221 3.23067 9.68066 3.35867 9.80866C3.48667 9.93666 3.64489 10.0004 3.83333 9.99999ZM6.43333 9.99999H8.43333C8.62222 9.99999 8.78067 9.93599 8.90867 9.80799C9.03667 9.67999 9.10044 9.52177 9.1 9.33332V8.33332C9.1 8.14443 9.036 7.96932 8.908 7.80799C8.78 7.64666 8.62178 7.56621 8.43333 7.56666H7.43333V6.99999H9.1V5.99999H7.1C6.91111 5.99999 6.75289 6.06399 6.62533 6.19199C6.49778 6.31999 6.43378 6.47821 6.43333 6.66666V7.66666C6.43333 7.85555 6.49733 8.0251 6.62533 8.17532C6.75333 8.32555 6.91156 8.40043 7.1 8.39999H8.1V8.99999H6.43333V9.99999ZM10.8333 9.99999H11.8333L13 5.99999H12L11.3333 8.29999L10.6667 5.99999H9.66667L10.8333 9.99999ZM2.66667 13.3333C2.3 13.3333 1.98622 13.2029 1.72533 12.942C1.46444 12.6811 1.33378 12.3671 1.33333 12V3.99999C1.33333 3.63332 1.464 3.31955 1.72533 3.05866C1.98667 2.79777 2.30044 2.6671 2.66667 2.66666H13.3333C13.7 2.66666 14.014 2.79732 14.2753 3.05866C14.5367 3.31999 14.6671 3.63377 14.6667 3.99999V12C14.6667 12.3667 14.5362 12.6807 14.2753 12.942C14.0144 13.2033 13.7004 13.3338 13.3333 13.3333H2.66667Z" fill="#C5C5C5"/>
</svg>

<svg xmlns="http://www.w3.org/2000/svg" width="16" height="16" fill="none" xmlns:v="https://vecta.io/nano"><path d="M3.833 10h2V9H4.167V7h1.667V6h-2c-.189 0-.347.064-.475.192s-.192.286-.192.475v2.667c0 .189.064.347.192.475s.286.192.475.191zm2.6 0h2c.189 0 .347-.064.475-.192s.192-.286.191-.475v-1c0-.189-.064-.364-.192-.525s-.286-.242-.475-.241h-1V7H9.1V6h-2c-.189 0-.347.064-.475.192s-.192.286-.192.475v1c0 .189.064.358.192.509s.286.225.475.225h1V9H6.433v1zm4.4 0h1L13 6h-1l-.667 2.3-.667-2.3h-1l1.167 4zm-8.167 3.333c-.367 0-.68-.13-.941-.391s-.392-.575-.392-.942V4a1.28 1.28 0 0 1 .392-.941c.261-.261.575-.392.941-.392h10.667c.367 0 .681.131.942.392a1.28 1.28 0 0 1 .391.941v8c0 .367-.131.681-.391.942a1.28 1.28 0 0 1-.942.391H2.667z" fill="#c5c5c5"/></svg>
